_includes/icons/ios-html-filetype.svg

<svg fill="#666" height="50" viewBox="0 0 50 50" width="50" xmlns="http://www.w3.org/2000/svg"><path d="m6 0v50h38v-35.414062l-14.585937-14.585938zm2 2h20v14h14v32h-34zm22 1.414063 10.585938 10.585937h-10.585938zm-19.484375 21.128906v11.457031h1.820313v-5.046875h2.71875v5.046875h1.820312v-11.457031h-1.820312v4.742187h-2.71875v-4.742187zm7.410156 0v1.664062h2.058594v9.792969h1.816406v-9.792969h2.058594v-1.664062zm7.414063 0-.765625 11.457031h1.582031l.203125-4.367187c.066406-1.359375.136719-2.875.15625-4.164063h.046875c.207031 1.273438.511719 2.699219.816406 3.855469l1.121094 4.539062h1.242188l1.191406-4.660156c.269531-1.101562.574219-2.476562.796875-3.734375h.050781c-.015625 1.257813.050781 2.820313.121094 4.109375l.222656 4.421875h1.644531l-.679687-11.457031h-1.953125l-1.074219 4.640625c-.339844 1.496094-.59375 2.6875-.796875 3.976562h-.03125c-.222656-1.289062-.511719-2.496093-.871094-3.976562l-1.101562-4.640625zm9.960937 0v11.457031h4.878907v-1.53125h-3.058594v-9.925781z"/></svg>

<svg xmlns="http://www.w3.org/2000/svg" viewBox="0 0 50 50" width="50" height="50" fill="#666"><path d="M 6 0 L 6 50 L 44 50 L 44 14.585938 L 29.414063 0 Z M 8 2 L 28 2 L 28 16 L 42 16 L 42 48 L 8 48 Z M 30 3.414063 L 40.585938 14 L 30 14 Z M 10.515625 24.542969 L 10.515625 36 L 12.335938 36 L 12.335938 30.953125 L 15.054688 30.953125 L 15.054688 36 L 16.875 36 L 16.875 24.542969 L 15.054688 24.542969 L 15.054688 29.285156 L 12.335938 29.285156 L 12.335938 24.542969 Z M 17.925781 24.542969 L 17.925781 26.207031 L 19.984375 26.207031 L 19.984375 36 L 21.800781 36 L 21.800781 26.207031 L 23.859375 26.207031 L 23.859375 24.542969 Z M 25.339844 24.542969 L 24.574219 36 L 26.15625 36 L 26.359375 31.632813 C 26.425781 30.273438 26.496094 28.757813 26.515625 27.46875 L 26.5625 27.46875 C 26.769531 28.742188 27.074219 30.167969 27.378906 31.324219 L 28.5 35.863281 L 29.742188 35.863281 L 30.933594 31.203125 C 31.203125 30.101563 31.507813 28.726563 31.730469 27.46875 L 31.78125 27.46875 C 31.765625 28.726563 31.832031 30.289063 31.902344 31.578125 L 32.125 36 L 33.769531 36 L 33.089844 24.542969 L 31.136719 24.542969 L 30.0625 29.183594 C 29.722656 30.679688 29.46875 31.871094 29.265625 33.160156 L 29.234375 33.160156 C 29.011719 31.871094 28.722656 30.664063 28.363281 29.183594 L 27.261719 24.542969 Z M 35.300781 24.542969 L 35.300781 36 L 40.179688 36 L 40.179688 34.46875 L 37.121094 34.46875 L 37.121094 24.542969 Z"/></svg>
